;FLAVOR:Marlin
;TIME:6101
;Filament used: 5.04483m, 0m
;Layer height: 0.15
;MINX:98.915
;MINY:98.9
;MINZ:0.15
;MAXX:151.084
;MAXY:151.082
;MAXZ:34.05
;Generated with Cura_SteamEngine 4.11.0
T0
M82 ;absolute extrusion mode
;GeeeTech A20M start script
G28 ;home
G90 ;absolute positioning
G1 X0 Y0 Z15 E0 F300 ;go to wait position
M140 S60 ;set bed temp
M109 S200 ;set extruder temp and wait
G1 Z0.8 F200 ;set extruder height
G1 X220 Y0 E80 F1000 ;purge line
;end of start script
G92 E0
G92 E0
G1 F2100 E-0.8
;LAYER_COUNT:227
;LAYER:0
M107
G0 F3600 X107.498 Y100.032 Z0.15
;TYPE:SKIRT
G1 F2100 E0
G1 F1800 X107.933 Y99.662 E0.01425
G1 X108.03 Y99.592 E0.01723
G1 X108.487 Y99.311 E0.03061
G1 X108.981 Y99.102 E0.04399
G1 X109.5 Y98.968 E0.05736
G1 X110.083 Y98.911 E0.07198
G1 X110.821 Y98.9 E0.09039
G1 X138.061 Y98.9 E0.76989
G1 X138.766 Y98.911 E0.78748
G1 X139.3 Y98.96 E0.80086
G1 X139.821 Y99.087 E0.81423
G1 X140.318 Y99.29 E0.82763
G1 X140.808 Y99.586 E0.84191
G1 X140.9 Y99.652 E0.84473
G1 X141.312 Y99.996 E0.85812
G1 X141.667 Y100.398 E0.8715
G1 X141.959 Y100.847 E0.88486
G1 X142.192 Y101.348 E0.89864
G1 X142.36 Y101.765 E0.90986
G1 X150.596 Y123.027 E1.47864
G1 X150.854 Y123.72 E1.49709
G1 X151.031 Y124.384 E1.51423
G1 X151.035 Y124.408 E1.51483
G1 X151.084 Y124.942 E1.52821
G1 X151.061 Y125.41 E1.5399
G1 X150.961 Y126.271 E1.56152
G1 X150.386 Y130.645 E1.67157
G1 X150.293 Y131.292 E1.68788
G1 X150.178 Y131.816 E1.70126
G1 X150.079 Y132.1 E1.70876
G1 X149.711 Y133.032 E1.73376
G1 X148.059 Y137.021 E1.84146
G1 X147.792 Y137.642 E1.85832
G1 X147.544 Y138.117 E1.87169
G1 X147.379 Y138.361 E1.87903
G1 X146.799 Y139.144 E1.90334
G1 X144.173 Y142.57 E2.01102
G1 X143.74 Y143.12 E2.02848
G1 X143.377 Y143.515 E2.04186
G1 X143.149 Y143.713 E2.0494
G1 X142.344 Y144.351 E2.07502
G1 X138.974 Y146.932 E2.18091
G1 X138.398 Y147.36 E2.19881
G1 X137.8 Y147.72 E2.21622
G1 X137.135 Y148.014 E2.23436
G1 X132.84 Y149.786 E2.35026
G1 X132.181 Y150.047 E2.36794
G1 X132.011 Y150.109 E2.37245
G1 X131.351 Y150.273 E2.38941
G1 X130.428 Y150.411 E2.41269
G1 X126.098 Y150.982 E2.52164
G1 X125.432 Y151.06 E2.53837
G1 X124.896 Y151.082 E2.55175
G1 X124.606 Y151.061 E2.559
G1 X123.655 Y150.952 E2.58288
G1 X119.31 Y150.378 E2.69221
G1 X118.695 Y150.289 E2.70771
G1 X118.172 Y150.173 E2.72107
G1 X117.89 Y150.075 E2.72852
G1 X116.995 Y149.721 E2.75253
G1 X112.957 Y148.05 E2.86154
G1 X112.355 Y147.791 E2.87789
G1 X111.88 Y147.543 E2.89126
G1 X111.636 Y147.378 E2.89861
G1 X110.849 Y146.794 E2.92305
G1 X107.409 Y144.157 E3.03117
G1 X106.88 Y143.741 E3.04796
G1 X106.484 Y143.379 E3.06135
G1 X106.285 Y143.149 E3.06893
G1 X105.647 Y142.344 E3.09456
G1 X103.05 Y138.953 E3.2011
G1 X102.657 Y138.425 E3.21752
G1 X102.37 Y137.973 E3.23088
G1 X102.241 Y137.706 E3.23827
G1 X101.841 Y136.78 E3.26344
G1 X100.192 Y132.784 E3.37127
G1 X99.939 Y132.147 E3.38837
G1 X99.779 Y131.635 E3.40175
G1 X99.725 Y131.351 E3.40896
G1 X99.583 Y130.398 E3.433
G1 X99.017 Y126.087 E3.54146
G1 X98.938 Y125.415 E3.55833
G1 X98.915 Y124.88 E3.57169
G1 X98.945 Y124.516 E3.5808
G1 X99.089 Y123.865 E3.59744
G1 X99.353 Y123.042 E3.619
G1 X106.416 Y102.033 E4.17189
G1 X106.646 Y101.382 E4.18911
G1 X106.861 Y100.891 E4.20248
G1 X107.148 Y100.437 E4.21588
G1 X107.498 Y100.032 E4.22924
G0 F3600 X107.843 Y100.254
G1 F1800 X108.264 Y99.916 E4.2427
G1 X108.696 Y99.654 E4.25531
G1 X109.164 Y99.462 E4.26792
G1 X109.657 Y99.347 E4.28055
G1 X110.089 Y99.311 E4.29137
G1 X110.827 Y99.3 E4.30978
G1 X138.055 Y99.3 E4.98898
G1 X138.76 Y99.311 E5.00657
G1 X139.263 Y99.359 E5.01918
G1 X139.753 Y99.486 E5.0318
G1 X140.216 Y99.688 E5.0444
G1 X140.667 Y99.977 E5.05777
G1 X141.054 Y100.303 E5.07039
G1 X141.384 Y100.686 E5.083
G1 X141.742 Y101.315 E5.10105
G1 X141.973 Y101.875 E5.11616
G1 X150.221 Y123.167 E5.68575
G1 X150.479 Y123.86 E5.7042
G1 X150.636 Y124.45 E5.71943
G1 X150.64 Y124.474 E5.72004
G1 X150.684 Y124.978 E5.73266
G1 X150.663 Y125.365 E5.74232
G1 X150.565 Y126.219 E5.76377
G1 X149.99 Y130.588 E5.87369
G1 X149.897 Y131.235 E5.89
G1 X149.707 Y131.954 E5.90855
G1 X149.342 Y132.879 E5.93335
G1 X147.692 Y136.863 E6.04092
G1 X147.425 Y137.484 E6.05778
G1 X147.058 Y138.123 E6.07617
G1 X146.482 Y138.901 E6.10031
G1 X143.858 Y142.322 E6.20786
G1 X143.425 Y142.872 E6.22532
G1 X142.9 Y143.4 E6.2439
G1 X142.101 Y144.033 E6.26933
G1 X138.736 Y146.611 E6.37507
G1 X138.16 Y147.039 E6.39297
G1 X137.628 Y147.359 E6.40846
G1 X136.979 Y147.646 E6.42616
G1 X132.692 Y149.414 E6.54184
G1 X132.033 Y149.675 E6.55952
G1 X131.879 Y149.732 E6.56361
G1 X131.292 Y149.878 E6.5787
G1 X130.375 Y150.015 E6.60183
G1 X126.051 Y150.584 E6.71062
G1 X125.385 Y150.662 E6.72735
G1 X124.651 Y150.663 E6.74566
G1 X123.707 Y150.555 E6.76936
G1 X119.368 Y149.982 E6.87854
G1 X118.753 Y149.893 E6.89404
G1 X118.037 Y149.703 E6.91252
G1 X117.148 Y149.352 E6.93636
G1 X113.115 Y147.682 E7.04525
G1 X112.513 Y147.423 E7.06159
G1 X111.874 Y147.056 E7.07998
G1 X111.092 Y146.477 E7.10425
G1 X107.656 Y143.842 E7.21226
G1 X107.127 Y143.426 E7.22905
G1 X106.598 Y142.9 E7.24766
G1 X105.965 Y142.101 E7.27309
G1 X103.371 Y138.715 E7.37949
G1 X102.978 Y138.187 E7.39591
G1 X102.608 Y137.547 E7.41435
G1 X102.211 Y136.628 E7.43932
G1 X100.564 Y132.636 E7.54704
G1 X100.311 Y131.999 E7.56414
G1 X100.12 Y131.291 E7.58243
G1 X99.979 Y130.346 E7.60627
G1 X99.414 Y126.041 E7.71458
G1 X99.335 Y125.369 E7.73146
G1 X99.316 Y124.863 E7.74409
G1 X99.342 Y124.566 E7.75152
G1 X99.47 Y123.987 E7.76632
G1 X99.732 Y123.169 E7.78774
G1 X106.793 Y102.166 E8.34048
G1 X107.023 Y101.515 E8.3577
G1 X107.228 Y101.053 E8.37031
G1 X107.504 Y100.629 E8.38293
G1 X107.843 Y100.254 E8.39554
G0 F3600 X110.2 Y102.7
;TYPE:SUPPORT
G1 F1800 X138.647 Y102.7 E9.10515
G1 X147.294 Y125.02 E9.70225
G1 X146.54 Y130.758 E9.84662
G1 X144.309 Y136.146 E9.99209
G1 X140.755 Y140.781 E10.13778
G1 X136.144 Y144.313 E10.28267
G1 X130.796 Y146.519 E10.42698
G1 X130.744 Y146.537 E10.42836
G1 X124.988 Y147.296 E10.57318
G1 X119.235 Y146.536 E10.71794
G1 X113.851 Y144.308 E10.86329
G1 X109.216 Y140.754 E11.00899
G1 X105.694 Y136.157 E11.15345
G1 X103.46 Y130.744 E11.29952
G1 X102.705 Y124.997 E11.44411
G1 X110.2 Y102.7 E12.0309
G0 F3600 X119.356 Y115.683
G1 F1800 X115.598 Y119.497 E12.16446
G1 X115.456 Y119.748 E12.17166
G1 X114.107 Y124.932 E12.30528
G1 X114.107 Y125.223 E12.31254
G1 X115.535 Y130.396 E12.4464
G1 X115.683 Y130.644 E12.45361
G1 X119.497 Y134.402 E12.58717
G1 X119.748 Y134.544 E12.59437
G1 X124.932 Y135.893 E12.72799
G1 X125.223 Y135.893 E12.73525
G1 X130.396 Y134.465 E12.86912
G1 X130.644 Y134.317 E12.87632
G1 X134.402 Y130.503 E13.00988
G1 X134.544 Y130.252 E13.01708
G1 X135.893 Y125.068 E13.1507
G1 X135.893 Y124.777 E13.15796
G1 X134.465 Y119.604 E13.29183
G1 X134.317 Y119.356 E13.29903
G1 X130.503 Y115.598 E13.4326
G1 X130.252 Y115.456 E13.43979
G1 X125.068 Y114.107 E13.57341
G1 X124.777 Y114.107 E13.58067
G1 X119.604 Y115.535 E13.71454
G1 X119.356 Y115.683 E13.72174
G0 F3600 X120.015 Y115.256
G1 F1800 X120.015 Y102.86 E14.03096
G0 F3600 X117.348 Y102.86
G1 F1800 X117.348 Y117.493 E14.39598
G0 F3600 X117.489 Y117.348
G1 F1800 X105.446 Y117.348 E14.6964
G0 F3600 X106.342 Y114.681
G1 F1800 X122.093 Y114.681 E15.08931
G0 F3600 X122.682 Y114.52
G1 F1800 X122.682 Y102.86 E15.38017
G0 F3600 X125.349 Y102.86
G1 F1800 X125.349 Y114.014 E15.65841
G0 F3600 X127.911 Y114.681
G1 F1800 X143.118 Y114.681 E16.03775
G0 F3600 X144.018 Y117.006
G1 F1800 X144.018 Y136.262 E16.51809
G0 F3600 X144.188 Y136.017
G1 F1800 X125.373 Y136.017 E16.98743
G0 F3600 X125.349 Y136.023
G1 F1800 X125.349 Y147.088 E17.26345
G0 F3600 X122.682 Y146.83
G1 F1800 X122.682 Y135.473 E17.54675
G0 F3600 X124.773 Y136.017
G1 F1800 X105.808 Y136.017 E18.01983
G0 F3600 X106.68 Y137.18
G1 F1800 X106.68 Y113.674 E18.60619
G0 F3600 X107.239 Y112.014
G1 F1800 X142.085 Y112.014 E19.47543
G0 F3600 X141.351 Y110.122
G1 F1800 X141.351 Y139.741 E20.21428
G0 F3600 X142.161 Y138.684
G1 F1800 X107.83 Y138.684 E21.07067
G0 F3600 X109.347 Y140.653
G1 F1800 X109.347 Y105.739 E21.9416
G0 F3600 X109.031 Y106.68
G1 F1800 X140.019 Y106.68 E22.7146
G0 F3600 X138.986 Y104.013
G1 F1800 X109.928 Y104.013 E23.43946
G0 F3600 X112.014 Y102.86
G1 F1800 X112.014 Y142.697 E24.43319
G0 F3600 X113.735 Y144.018
G1 F1800 X136.265 Y144.018 E24.99521
G0 F3600 X136.017 Y144.193
G1 F1800 X136.017 Y125.226 E25.46834
G0 F3600 X135.985 Y125.349
G1 F1800 X147.089 Y125.349 E25.74533
G0 F3600 X146.685 Y123.891
G1 F1800 X146.685 Y128.429 E25.85853
G0 F3600 X146.738 Y128.016
G1 F1800 X135.291 Y128.016 E26.14408
G0 F3600 X134.45 Y130.683
G1 F1800 X146.388 Y130.683 E26.44187
G0 F3600 X145.292 Y133.35
G1 F1800 X131.822 Y133.35 E26.77788
G0 F3600 X130.683 Y134.48
G1 F1800 X130.683 Y146.385 E27.07486
G0 F3600 X128.399 Y146.685
G1 F1800 X121.579 Y146.685 E27.24498
G0 F3600 X120.015 Y146.478
G1 F1800 X120.015 Y134.779 E27.53681
G0 F3600 X118.2 Y133.35
G1 F1800 X104.707 Y133.35 E27.8734
G0 F3600 X104.013 Y131.665
G1 F1800 X104.013 Y121.608 E28.12427
G0 F3600 X103.652 Y122.682
G1 F1800 X114.526 Y122.682 E28.39552
G0 F3600 X114.681 Y122.093
G1 F1800 X114.681 Y102.86 E28.87529
G0 F3600 X108.135 Y109.347
G1 F1800 X141.052 Y109.347 E29.69641
G0 F3600 X138.684 Y103.237
G1 F1800 X138.684 Y142.166 E30.6675
G0 F3600 X139.747 Y141.351
G1 F1800 X110.256 Y141.351 E31.40315
G0 F3600 X114.681 Y144.478
G1 F1800 X114.681 Y127.903 E31.81662
G0 F3600 X114.712 Y128.016
G1 F1800 X103.261 Y128.016 E32.10227
G0 F3600 X103.611 Y130.683
G1 F1800 X115.519 Y130.683 E32.39931
G0 F3600 X117.348 Y132.51
G1 F1800 X117.348 Y145.582 E32.72539
G0 F3600 X128.016 Y146.736
G1 F1800 X128.016 Y135.287 E33.01099
G1 F2100 E32.21099
G0 F3600 X130.498 Y134.129
G0 X133.35 Y131.799
G1 F2100 E33.01099
G1 F1800 X133.35 Y145.293 E33.3476
G0 F3600 X136.017 Y124.626
G1 F1800 X136.017 Y102.86 E33.89056
G0 F3600 X133.35 Y102.86
G1 F1800 X133.35 Y118.177 E34.27264
G0 F3600 X132.508 Y117.348
G1 F1800 X144.151 Y117.348 E34.56308
G0 F3600 X145.185 Y120.015
G1 F1800 X134.744 Y120.015 E34.82353
G0 F3600 X135.48 Y122.682
G1 F1800 X146.218 Y122.682 E35.09139
G0 F3600 X130.683 Y115.549
G1 F1800 X130.683 Y102.86 E35.40792
G0 F3600 X128.016 Y102.86
G1 F1800 X128.016 Y114.709 E35.70349
G1 F2100 E34.90349
G0 F3600 X124.809 Y114.343
G0 X119.698 Y115.754
G0 X115.22 Y120.015
G1 F2100 E35.70349
G1 F1800 X104.548 Y120.015 E35.9697
G0 F3600 X102.91 Y125.349
G1 F1800 X113.976 Y125.349 E36.24575
G0 F3600 X119.84 Y125.001
G1 F1800 X122.448 Y120.513 E36.37523
G1 X127.552 Y120.513 E36.50255
G1 X130.16 Y125.001 E36.63203
G1 X127.581 Y129.469 E36.76072
G1 X122.419 Y129.469 E36.88949
G1 X119.84 Y125.001 E37.01818
G0 F3600 X120.225 Y125.349
G1 F1800 X129.772 Y125.349 E37.25633
G0 F3600 X128.628 Y122.682
G1 F1800 X121.371 Y122.682 E37.43736
G0 F3600 X122.682 Y120.673
G1 F1800 X122.682 Y129.309 E37.65278
G0 F3600 X121.764 Y128.016
G1 F1800 X128.233 Y128.016 E37.81415
G0 F3600 X128.016 Y128.396
G1 F1800 X128.016 Y121.63 E37.98293
G0 F3600 X125.349 Y120.673
G1 F1800 X125.349 Y129.309 E38.19836
G1 F2100 E37.39836
;MESH:saddle_stepper.stl
G0 F3600 X125.349 Y130.969
G0 X129.7 Y133.001
G1 F2100 E38.19836
G0 F3600 X129.75 Y133.087
;TYPE:WALL-INNER
G1 F1800 X125.069 Y134.379 E38.31949
G1 X120.37 Y133.156 E38.44061
G1 X116.913 Y129.75 E38.56167
G1 X115.621 Y125.069 E38.68281
G1 X116.844 Y120.37 E38.80393
G1 X120.25 Y116.913 E38.92499
G1 X124.931 Y115.621 E39.04612
G1 X129.63 Y116.844 E39.16724
G1 X133.087 Y120.25 E39.2883
G1 X134.379 Y124.931 E39.40944
G1 X133.156 Y129.63 E39.53056
G1 X129.75 Y133.087 E39.65162
G0 F3600 X129.7 Y133.001
G0 X121.534 Y131.003
G0 X118.007 Y124.999
G0 X118.107 Y124.999
G1 F1800 X121.554 Y130.969 E39.82358
G1 X128.446 Y130.969 E39.9955
G1 X131.893 Y124.999 E40.16747
G1 X128.415 Y119.013 E40.34016
G1 X121.585 Y119.013 E40.51054
G1 X118.107 Y124.999 E40.68323
G0 F3600 X118.569 Y125
;TYPE:WALL-OUTER
G1 F1800 X121.785 Y130.569 E40.84365
G1 X128.215 Y130.569 E41.00405
G1 X131.431 Y125 E41.16447
G1 X128.185 Y119.413 E41.32565
G1 X121.815 Y119.413 E41.48455
G1 X118.569 Y125 E41.64573
G0 F3600 X118.669 Y125.173
G0 X118.236 Y125.422
G0 X121.534 Y131.003
G0 X129.7 Y133.001
G0 X129.96 Y133.444
G1 F1800 X125.073 Y134.793 E41.7722
G1 X120.165 Y133.516 E41.89871
G1 X116.556 Y129.96 E42.02509
G1 X115.207 Y125.073 E42.15156
G1 X116.484 Y120.165 E42.27807
G1 X120.04 Y116.556 E42.40445
G1 X124.927 Y115.207 E42.53092
G1 X129.835 Y116.484 E42.65742
G1 X133.444 Y120.04 E42.78381
G1 X134.793 Y124.927 E42.91028
G1 X133.516 Y129.835 E43.03678
G1 X129.96 Y133.444 E43.16317
G0 F3600 X129.768 Y133.497
G0 X129.547 Y132.738
;TYPE:SKIN
G1 F1800 X125.067 Y133.975 E43.27911
G1 X120.567 Y132.803 E43.3951
G1 X117.262 Y129.547 E43.51083
G1 X116.025 Y125.067 E43.62677
G1 X117.197 Y120.567 E43.74277
G1 X120.453 Y117.262 E43.8585
G1 X124.933 Y116.025 E43.97444
G1 X129.433 Y117.197 E44.09043
G1 X132.738 Y120.453 E44.20616
G1 X133.975 Y124.933 E44.3221
G1 X132.803 Y129.433 E44.4381
G1 X129.547 Y132.738 E44.55383
G0 F3600 X128.671 Y131.359
G1 F1800 X132.344 Y124.999 E44.73704
G1 X128.639 Y118.623 E44.92099
G1 X121.361 Y118.623 E45.10254
G1 X117.656 Y124.999 E45.28649
G1 X121.329 Y131.359 E45.4697
G1 X128.671 Y131.359 E45.65285
G0 F3600 X121.534 Y131.003
G0 X117.365 Y129.244
G1 F1800 X120.795 Y132.674 E45.77385
G0 F3600 X121.56 Y132.874
G1 F1800 X117.149 Y128.462 E45.92948
G1 X117.079 Y128.392
G0 F3600 X116.933 Y127.681
G1 F1800 X122.325 Y133.073 E46.1197
G0 F3600 X123.091 Y133.273
G1 F1800 X121.356 Y131.538 E46.1809
G0 F3600 X121.045 Y131.227
G1 F1800 X116.717 Y126.899 E46.33358
G1 X116.647 Y126.829
G0 F3600 X116.501 Y126.118
G1 F1800 X120.272 Y129.889 E46.46662
G1 X120.342 Y129.959
G0 F3600 X119.498 Y128.549
G1 F1800 X116.285 Y125.336 E46.57996
G0 F3600 X116.286 Y124.771
G1 F1800 X118.726 Y127.211 E46.66604
G1 X118.796 Y127.281
G0 F3600 X117.952 Y125.872
G1 F1800 X116.403 Y124.323 E46.72069
G0 F3600 X116.52 Y123.874
G1 F1800 X117.52 Y124.874 E46.75596
G0 F3600 X117.728 Y124.516
G1 F1800 X116.637 Y123.426 E46.79443
G0 F3600 X116.754 Y122.977
G1 F1800 X117.936 Y124.158 E46.83611
G0 F3600 X118.144 Y123.8
G1 F1800 X116.872 Y122.528 E46.88099
G0 F3600 X116.988 Y122.079
G1 F1800 X118.351 Y123.443 E46.92909
G0 F3600 X118.559 Y123.085
G1 F1800 X117.106 Y121.631 E46.98037
G0 F3600 X117.222 Y121.182
G1 F1800 X118.767 Y122.727 E47.03487
G0 F3600 X118.975 Y122.369
G1 F1800 X117.339 Y120.733 E47.09258
G0 F3600 X117.592 Y120.42
G1 F1800 X119.183 Y122.011 E47.14871
G0 F3600 X119.391 Y121.654
G1 F1800 X117.873 Y120.136 E47.20226
G0 F3600 X118.154 Y119.851
G1 F1800 X119.599 Y121.296 E47.25324
G0 F3600 X119.807 Y120.938
G1 F1800 X118.434 Y119.566 E47.30166
G0 F3600 X118.715 Y119.281
G1 F1800 X120.015 Y120.58 E47.3475
G0 F3600 X120.223 Y120.223
G1 F1800 X118.996 Y118.996 E47.39079
G0 F3600 X119.276 Y118.711
G1 F1800 X120.43 Y119.865 E47.4315
G0 F3600 X120.638 Y119.507
G1 F1800 X119.557 Y118.426 E47.46963
G0 F3600 X119.838 Y118.141
G1 F1800 X120.846 Y119.149 E47.50519
G0 F3600 X121.054 Y118.791
G1 F1800 X120.119 Y117.856 E47.53818
G0 F3600 X120.399 Y117.571
G1 F1800 X121.27 Y118.442 E47.5689
G0 F3600 X121.836 Y118.442
G1 F1800 X120.758 Y117.364 E47.60693
G0 F3600 X121.202 Y117.242
G1 F1800 X122.402 Y118.442 E47.64927
G0 F3600 X122.967 Y118.442
G1 F1800 X121.644 Y117.119 E47.69594
G0 F3600 X122.088 Y116.997
G1 F1800 X123.533 Y118.442 E47.74691
G0 F3600 X124.099 Y118.442
G1 F1800 X122.531 Y116.874 E47.80223
G0 F3600 X122.975 Y116.752
G1 F1800 X124.665 Y118.442 E47.86185
G0 F3600 X125.23 Y118.442
G1 F1800 X123.418 Y116.63 E47.92577
G0 F3600 X123.861 Y116.507
G1 F1800 X125.796 Y118.442 E47.99403
G0 F3600 X126.362 Y118.442
G1 F1800 X124.304 Y116.384 E48.06664
G0 F3600 X124.747 Y116.262
G1 F1800 X126.927 Y118.442 E48.14354
G0 F3600 X127.493 Y118.442
G1 F1800 X125.377 Y116.326 E48.21819
G0 F3600 X126.142 Y116.526
G1 F1800 X128.059 Y118.442 E48.2858
G0 F3600 X128.624 Y118.442
G1 F1800 X126.907 Y116.725 E48.34637
G0 F3600 X127.673 Y116.925
G1 F1800 X133.065 Y122.317 E48.53659
G1 X133.135 Y122.387
G0 F3600 X132.849 Y121.536
G1 F1800 X128.438 Y117.125 E48.6922
G0 F3600 X129.203 Y117.324
