;FLAVOR:Marlin
;TIME:10188
;Filament used: 4.66159m, 0.613683m
;Layer height: 0.1
;MINX:93.9
;MINY:93.9
;MINZ:0.15
;MAXX:156.1
;MAXY:156.081
;MAXZ:32.95
;Generated with Cura_SteamEngine 4.11.0
T0
M82 ;absolute extrusion mode
;GeeeTech A20M start script
G28 ;home
G90 ;absolute positioning
G1 X0 Y0 Z15 E0 F300 ;go to wait position
M140 S60 ;set bed temp
M109 S200 ;set extruder temp and wait
G1 Z0.8 F200 ;set extruder height
G1 X220 Y0 E80 F1000 ;purge line
;end of start script
G92 E0
G92 E0
G1 F2100 E-0.8
;LAYER_COUNT:330
;LAYER:0
M107
M104 T1 S175
G0 F3600 X100.305 Y99.89 Z0.15
;TYPE:SKIRT
G1 F2100 E0
G1 F1800 X100.868 Y99.332 E0.01977
G1 X101.804 Y98.494 E0.05111
G1 X102.363 Y98.038 E0.06911
G1 X103.274 Y97.363 E0.09739
G1 X103.942 Y96.919 E0.1174
G1 X105.007 Y96.288 E0.14828
G1 X105.713 Y95.917 E0.16817
G1 X106.744 Y95.441 E0.1965
G1 X107.834 Y95.034 E0.22552
G1 X107.913 Y95.011 E0.22758
G1 X108.681 Y94.829 E0.24727
G1 X109.464 Y94.725 E0.26697
G1 X110.093 Y94.7 E0.28267
G1 X138.737 Y94.7 E0.9972
G1 X139.526 Y94.74 E1.01691
G1 X140.206 Y94.84 E1.03405
G1 X140.279 Y94.854 E1.03591
G1 X141.046 Y95.041 E1.0556
G1 X141.79 Y95.306 E1.0753
G1 X142.481 Y95.632 E1.09436
G1 X143.409 Y96.127 E1.1206
G1 X143.756 Y96.324 E1.13055
G1 X144.538 Y96.794 E1.15331
G1 X144.913 Y97.033 E1.1644
G1 X145.971 Y97.754 E1.19634
G1 X146.296 Y97.989 E1.20634
G1 X146.945 Y98.482 E1.22667
G1 X147.303 Y98.771 E1.23815
G1 X148.136 Y99.485 E1.26552
G1 X148.407 Y99.728 E1.2746
G1 X149.279 Y100.549 E1.30447
G1 X149.577 Y100.845 E1.31495
G1 X150.193 Y101.491 E1.33722
G1 X150.516 Y101.851 E1.34928
G1 X151.159 Y102.615 E1.37419
G1 X151.387 Y102.9 E1.3833
G1 X152.118 Y103.856 E1.41332
G1 X152.375 Y104.212 E1.42427
G1 X152.961 Y105.075 E1.45029
G1 X153.206 Y105.46 E1.46168
G1 X153.69 Y106.271 E1.48524
G1 X153.841 Y106.535 E1.49282
G1 X154.337 Y107.445 E1.51867
G1 X154.679 Y108.157 E1.53838
G1 X154.948 Y108.899 E1.55807
G1 X155.137 Y109.648 E1.57734
G1 X155.148 Y109.703 E1.57874
G1 X155.263 Y110.484 E1.59843
G1 X155.299 Y111.232 E1.61711
G1 X155.3 Y125.039 E1.96152
G1 X155.234 Y126.052 E1.98685
G1 X154.473 Y131.869 E2.13319
G1 X154.331 Y132.646 E2.15289
G1 X154.111 Y133.404 E2.17258
G1 X153.943 Y133.848 E2.18442
G1 X151.727 Y139.185 E2.32858
G1 X151.387 Y139.898 E2.34828
G1 X150.978 Y140.573 E2.36797
G1 X150.718 Y140.934 E2.37907
G1 X147.088 Y145.678 E2.52808
G1 X146.577 Y146.28 E2.54777
G1 X146.007 Y146.827 E2.56748
G1 X145.624 Y147.139 E2.5798
G1 X141.002 Y150.665 E2.72482
G1 X140.351 Y151.112 E2.74452
G1 X139.658 Y151.49 E2.76421
G1 X139.247 Y151.674 E2.77544
G1 X133.742 Y153.946 E2.924
G1 X132.997 Y154.21 E2.94372
G1 X132.23 Y154.397 E2.96341
G1 X131.78 Y154.47 E2.97478
G1 X126.059 Y155.22 E3.11871
G1 X125.272 Y155.283 E3.13841
G1 X124.482 Y155.266 E3.15812
G1 X124.015 Y155.218 E3.16983
G1 X118.145 Y154.436 E3.31755
G1 X117.369 Y154.292 E3.33724
G1 X116.611 Y154.07 E3.35694
G1 X116.2 Y153.914 E3.36791
G1 X110.747 Y151.664 E3.51506
G1 X110.033 Y151.327 E3.53475
G1 X109.357 Y150.918 E3.55446
G1 X108.979 Y150.647 E3.56606
G1 X104.324 Y147.082 E3.71232
G1 X103.723 Y146.57 E3.73202
G1 X103.176 Y146.001 E3.75171
G1 X102.88 Y145.639 E3.76337
G1 X99.346 Y141.036 E3.90813
G1 X98.898 Y140.386 E3.92783
G1 X98.517 Y139.694 E3.94753
G1 X98.325 Y139.267 E3.95921
G1 X96.049 Y133.764 E4.10776
G1 X95.785 Y133.02 E4.12745
G1 X95.597 Y132.253 E4.14715
G1 X95.523 Y131.799 E4.15863
G1 X94.767 Y126.042 E4.30347
G1 X94.701 Y125.027 E4.32884
G1 X94.7 Y113.998 E4.60396
G1 X94.708 Y113.639 E4.61292
G1 X94.78 Y112.071 E4.65207
G1 X94.858 Y111.272 E4.6721
G1 X95.028 Y110.139 E4.70068
G1 X95.182 Y109.377 E4.72007
G1 X95.45 Y108.321 E4.74725
G1 X95.677 Y107.582 E4.76653
G1 X96.08 Y106.47 E4.79604
G1 X96.355 Y105.808 E4.81392
G1 X96.902 Y104.645 E4.84598
G1 X97.292 Y103.918 E4.86656
G1 X97.882 Y102.946 E4.89492
G1 X98.297 Y102.33 E4.91345
G1 X99.039 Y101.335 E4.94441
G1 X99.526 Y100.745 E4.9635
G1 X100.305 Y99.89 E4.99235
G0 F3600 X100.601 Y100.159
G1 F1800 X101.135 Y99.63 E5.0111
G1 X102.071 Y98.792 E5.04244
G1 X102.602 Y98.359 E5.05953
G1 X103.513 Y97.684 E5.08781
G1 X104.146 Y97.264 E5.10676
G1 X105.211 Y96.633 E5.13764
G1 X105.881 Y96.28 E5.15653
G1 X106.912 Y95.804 E5.18486
G1 X107.945 Y95.418 E5.21237
G1 X108.024 Y95.395 E5.21442
G1 X108.773 Y95.219 E5.23362
G1 X109.536 Y95.121 E5.2528
G1 X110.093 Y95.1 E5.26671
G1 X138.737 Y95.1 E5.98124
G1 X139.505 Y95.14 E6.00042
G1 X140.131 Y95.232 E6.0162
G1 X140.204 Y95.246 E6.01806
G1 X140.951 Y95.43 E6.03725
G1 X141.674 Y95.691 E6.05642
G1 X142.293 Y95.985 E6.07352
G1 X143.221 Y96.48 E6.09975
G1 X143.55 Y96.666 E6.10918
G1 X144.332 Y97.136 E6.13194
G1 X144.687 Y97.364 E6.14247
G1 X145.745 Y98.085 E6.1744
G1 X146.054 Y98.307 E6.18389
G1 X146.703 Y98.8 E6.20422
G1 X147.043 Y99.075 E6.21513
G1 X147.876 Y99.789 E6.2425
G1 X148.133 Y100.019 E6.2511
G1 X149.005 Y100.84 E6.28098
G1 X149.287 Y101.121 E6.29091
G1 X149.903 Y101.767 E6.31318
G1 X150.21 Y102.109 E6.32464
G1 X150.853 Y102.873 E6.34955
G1 X151.069 Y103.143 E6.35818
G1 X151.8 Y104.099 E6.3882
G1 X152.044 Y104.437 E6.3986
G1 X152.63 Y105.3 E6.42462
G1 X152.862 Y105.665 E6.43541
G1 X153.346 Y106.476 E6.45896
G1 X153.49 Y106.726 E6.46616
G1 X153.986 Y107.636 E6.49201
G1 X154.318 Y108.33 E6.51121
G1 X154.577 Y109.054 E6.53039
G1 X154.744 Y109.727 E6.54768
G1 X154.755 Y109.782 E6.54908
G1 X154.867 Y110.543 E6.56827
G1 X154.899 Y111.232 E6.58548
G1 X154.9 Y125.039 E6.92989
G1 X154.837 Y126 E6.95392
G1 X154.076 Y131.817 E7.10026
G1 X153.937 Y132.573 E7.11943
G1 X153.72 Y133.311 E7.13862
G1 X153.573 Y133.695 E7.14888
G1 X151.357 Y139.032 E7.29303
G1 X151.026 Y139.726 E7.31221
G1 X150.4 Y140.691 E7.34091
G1 X146.77 Y145.435 E7.48991
G1 X146.271 Y146.021 E7.50911
G1 X145.715 Y146.551 E7.52828
G1 X145.381 Y146.821 E7.53899
G1 X140.759 Y150.347 E7.684
G1 X140.124 Y150.782 E7.7032
G1 X139.448 Y151.147 E7.72237
G1 X139.094 Y151.304 E7.73203
G1 X133.589 Y153.576 E7.88059
G1 X132.864 Y153.832 E7.89977
G1 X132.116 Y154.012 E7.91896
G1 X131.728 Y154.073 E7.92876
G1 X126.007 Y154.823 E8.07269
G1 X125.24 Y154.883 E8.09188
G1 X124.471 Y154.864 E8.11107
G1 X124.068 Y154.821 E8.12118
G1 X118.198 Y154.039 E8.2689
G1 X117.442 Y153.898 E8.28808
G1 X116.352 Y153.545 E8.31666
G1 X110.899 Y151.295 E8.46381
G1 X110.205 Y150.965 E8.48298
G1 X109.548 Y150.564 E8.50218
G1 X109.223 Y150.329 E8.51219
G1 X104.568 Y146.764 E8.65845
G1 X103.982 Y146.265 E8.67765
G1 X103.452 Y145.708 E8.69683
G1 X103.197 Y145.395 E8.7069
G1 X99.663 Y140.792 E8.85166
G1 X99.227 Y140.159 E8.87083
G1 X98.859 Y139.483 E8.89003
G1 X98.695 Y139.114 E8.9001
G1 X96.419 Y133.611 E9.04866
G1 X96.162 Y132.886 E9.06784
G1 X95.982 Y132.138 E9.08703
G1 X95.92 Y131.746 E9.09693
G1 X95.164 Y125.989 E9.24178
G1 X95.101 Y125.027 E9.26583
G1 X95.1 Y113.998 E9.54094
G1 X95.108 Y113.658 E9.54943
G1 X95.18 Y112.09 E9.58858
G1 X95.254 Y111.331 E9.60761
G1 X95.424 Y110.198 E9.63619
G1 X95.569 Y109.476 E9.65456
G1 X95.837 Y108.42 E9.68173
G1 X96.053 Y107.719 E9.70003
G1 X96.456 Y106.607 E9.72954
G1 X96.717 Y105.978 E9.74652
G1 X97.264 Y104.815 E9.77858
G1 X97.634 Y104.125 E9.79811
G1 X98.224 Y103.153 E9.82648
G1 X98.618 Y102.569 E9.84405
G1 X99.36 Y101.574 E9.87501
G1 X99.822 Y101.014 E9.89312
G1 X100.601 Y100.159 E9.92198
G0 F3600 X100.897 Y100.429
G1 F1800 X101.402 Y99.928 E9.93972
G1 X102.338 Y99.09 E9.97106
G1 X102.84 Y98.681 E9.98721
G1 X103.751 Y98.006 E10.01549
G1 X104.35 Y97.608 E10.03343
G1 X105.415 Y96.977 E10.06431
G1 X106.049 Y96.644 E10.08218
G1 X107.08 Y96.168 E10.11051
G1 X108.057 Y95.802 E10.13653
G1 X108.136 Y95.779 E10.13858
G1 X108.865 Y95.609 E10.15726
G1 X109.607 Y95.517 E10.17591
G1 X110.093 Y95.5 E10.18804
G1 X138.737 Y95.5 E10.90256
G1 X139.484 Y95.54 E10.92123
G1 X140.055 Y95.625 E10.93563
G1 X140.128 Y95.639 E10.93748
G1 X140.855 Y95.819 E10.95616
G1 X141.557 Y96.076 E10.97481
G1 X142.104 Y96.338 E10.98994
G1 X143.032 Y96.833 E11.01618
G1 X143.344 Y97.009 E11.02511
G1 X144.126 Y97.479 E11.04787
G1 X144.462 Y97.694 E11.05782
G1 X145.52 Y98.415 E11.08976
G1 X145.812 Y98.626 E11.09875
G1 X146.461 Y99.119 E11.11908
G1 X146.783 Y99.378 E11.12939
G1 X147.616 Y100.092 E11.15675
G1 X147.858 Y100.31 E11.16488
G1 X148.73 Y101.131 E11.19475
G1 X148.998 Y101.397 E11.20417
G1 X149.614 Y102.043 E11.22644
G1 X149.904 Y102.367 E11.23729
G1 X150.547 Y103.131 E11.2622
G1 X150.752 Y103.386 E11.27036
G1 X151.483 Y104.342 E11.30038
G1 X151.713 Y104.662 E11.31021
G1 X152.299 Y105.525 E11.33623
G1 X152.519 Y105.87 E11.34644
G1 X153.003 Y106.681 E11.37
G1 X153.138 Y106.918 E11.3768
G1 X153.634 Y107.828 E11.40265
G1 X153.957 Y108.503 E11.42132
G1 X154.205 Y109.209 E11.43999
G1 X154.352 Y109.805 E11.4553
G1 X154.363 Y109.86 E11.4567
G1 X154.47 Y110.601 E11.47537
G1 X154.499 Y111.232 E11.49113
G1 X154.5 Y125.039 E11.83555
G1 X154.441 Y125.948 E11.85827
G1 X153.68 Y131.765 E12.00461
G1 X153.543 Y132.501 E12.02329
G1 X153.204 Y133.541 E12.05057
G1 X150.988 Y138.878 E12.19473
G1 X150.664 Y139.553 E12.2134
G1 X150.082 Y140.448 E12.24003
G1 X146.452 Y145.192 E12.38904
G1 X145.967 Y145.761 E12.40769
G1 X145.139 Y146.503 E12.43543
G1 X140.517 Y150.029 E12.58044
G1 X139.899 Y150.451 E12.59911
G1 X138.942 Y150.935 E12.62586
G1 X133.437 Y153.207 E12.77442
G1 X132.731 Y153.455 E12.79309
G1 X131.676 Y153.677 E12.81998
G1 X125.955 Y154.427 E12.96391
G1 X125.209 Y154.484 E12.98258
G1 X124.121 Y154.425 E13.00976
G1 X118.251 Y153.643 E13.15748
G1 X117.515 Y153.504 E13.17616
G1 X116.505 Y153.175 E13.20266
G1 X111.052 Y150.925 E13.34981
G1 X110.377 Y150.603 E13.36847
G1 X109.466 Y150.011 E13.39557
G1 X104.811 Y146.446 E13.54183
G1 X104.242 Y145.961 E13.56048
G1 X103.515 Y145.152 E13.58761
G1 X99.981 Y140.549 E13.73237
G1 X99.557 Y139.932 E13.75105
G1 X99.064 Y138.961 E13.77821
G1 X96.788 Y133.458 E13.92676
G1 X96.54 Y132.753 E13.9454
G1 X96.317 Y131.694 E13.9724
G1 X95.561 Y125.937 E14.11724
G1 X95.501 Y125.027 E14.13999
G1 X95.5 Y113.998 E14.41511
G1 X95.507 Y113.676 E14.42315
G1 X95.579 Y112.108 E14.4623
G1 X95.649 Y111.39 E14.4803
G1 X95.819 Y110.257 E14.50888
G1 X95.957 Y109.574 E14.52626
G1 X96.225 Y108.518 E14.55343
G1 X96.429 Y107.855 E14.57074
G1 X96.832 Y106.743 E14.60024
G1 X97.079 Y106.149 E14.61629
G1 X97.626 Y104.986 E14.64835
G1 X97.976 Y104.333 E14.66683
G1 X98.566 Y103.361 E14.69519
G1 X98.939 Y102.808 E14.71183
G1 X99.681 Y101.813 E14.7428
G1 X100.118 Y101.284 E14.75991
G1 X100.897 Y100.429 E14.78877
G0 F3600 X101.192 Y100.698
G1 F1800 X101.669 Y100.226 E14.8055
G1 X102.605 Y99.388 E14.83684
G1 X103.078 Y99.002 E14.85207
G1 X103.989 Y98.327 E14.88036
G1 X104.554 Y97.952 E14.89727
G1 X105.619 Y97.321 E14.92815
G1 X106.216 Y97.007 E14.94498
G1 X107.247 Y96.531 E14.97331
G1 X108.169 Y96.186 E14.99786
G1 X108.248 Y96.163 E14.99991
G1 X108.956 Y95.999 E15.01804
G1 X109.677 Y95.913 E15.03616
G1 X110.093 Y95.9 E15.04654
G1 X138.737 Y95.9 E15.76107
G1 X139.462 Y95.94 E15.77918
G1 X139.98 Y96.018 E15.79225
G1 X140.053 Y96.032 E15.7941
G1 X140.758 Y96.208 E15.81223
G1 X141.439 Y96.46 E15.83034
G1 X141.916 Y96.691 E15.84356
G1 X142.844 Y97.186 E15.8698
G1 X143.138 Y97.352 E15.87822
G1 X143.92 Y97.822 E15.90098
G1 X144.237 Y98.025 E15.91037
G1 X145.295 Y98.746 E15.94231
G1 X145.57 Y98.944 E15.95076
G1 X146.219 Y99.437 E15.97109
G1 X146.522 Y99.682 E15.98081
G1 X147.355 Y100.396 E16.00818
G1 X147.584 Y100.602 E16.01586
G1 X148.456 Y101.423 E16.04574
G1 X148.708 Y101.673 E16.05459
G1 X149.324 Y102.319 E16.07686
G1 X149.598 Y102.624 E16.08709
G1 X150.241 Y103.388 E16.11199
G1 X150.434 Y103.629 E16.1197
G1 X151.165 Y104.585 E16.14972
G1 X151.382 Y104.886 E16.15897
G1 X151.968 Y105.749 E16.18499
G1 X152.175 Y106.075 E16.19463
G1 X152.659 Y106.886 E16.21819
G1 X152.787 Y107.109 E16.2246
G1 X153.283 Y108.019 E16.25045
G1 X153.595 Y108.675 E16.26857
G1 X153.833 Y109.362 E16.28671
G1 X153.96 Y109.884 E16.30011
G1 X153.971 Y109.939 E16.30151
G1 X154.074 Y110.658 E16.31963
G1 X154.099 Y111.233 E16.33399
G1 X154.1 Y125.04 E16.6784
G1 X154.044 Y125.896 E16.6998
G1 X153.283 Y131.713 E16.84614
G1 X153.15 Y132.427 E16.86426
G1 X152.834 Y133.388 E16.8895
G1 X150.618 Y138.725 E17.03365
G1 X150.303 Y139.379 E17.05176
G1 X149.765 Y140.205 E17.07635
G1 X146.135 Y144.949 E17.22536
G1 X145.662 Y145.5 E17.24347
G1 X144.896 Y146.185 E17.2691
G1 X140.274 Y149.711 E17.41412
G1 X139.673 Y150.12 E17.43225
G1 X138.789 Y150.565 E17.45694
G1 X133.284 Y152.837 E17.6055
G1 X132.598 Y153.077 E17.62363
G1 X131.624 Y153.28 E17.64845
G1 X125.903 Y154.03 E17.79238
G1 X125.179 Y154.085 E17.81049
G1 X124.173 Y154.028 E17.83563
G1 X118.303 Y153.246 E17.98335
G1 X117.59 Y153.111 E18.00145
G1 X116.658 Y152.805 E18.02592
G1 X111.205 Y150.555 E18.17307
G1 X110.549 Y150.241 E18.19121
G1 X109.709 Y149.694 E18.21622
G1 X105.054 Y146.129 E18.36248
G1 X104.503 Y145.656 E18.38059
G1 X103.832 Y144.908 E18.40566
G1 X100.298 Y140.305 E18.55042
G1 X99.888 Y139.706 E18.56853
G1 X99.434 Y138.808 E18.59363
G1 X97.158 Y133.305 E18.74218
G1 X96.918 Y132.62 E18.76028
G1 X96.713 Y131.642 E18.78521
G1 X95.957 Y125.885 E18.93005
G1 X95.901 Y125.027 E18.9515
G1 X95.9 Y113.998 E19.22662
G1 X95.907 Y113.694 E19.23421
G1 X95.979 Y112.126 E19.27336
G1 X96.045 Y111.45 E19.2903
G1 X96.215 Y110.317 E19.31888
G1 X96.345 Y109.672 E19.3353
G1 X96.613 Y108.616 E19.36247
G1 X96.805 Y107.991 E19.37878
G1 X97.208 Y106.879 E19.40829
G1 X97.441 Y106.319 E19.42342
G1 X97.988 Y105.156 E19.45548
G1 X98.318 Y104.54 E19.47291
G1 X98.908 Y103.568 E19.50127
G1 X99.259 Y103.047 E19.51694
G1 X100.001 Y102.052 E19.54791
G1 X100.413 Y101.553 E19.56405
G1 X101.192 Y100.698 E19.5929
G0 F3600 X101.488 Y100.967
G1 F1800 X101.935 Y100.524 E19.6086
G1 X102.871 Y99.686 E19.63994
G1 X103.316 Y99.323 E19.65426
G1 X104.227 Y98.648 E19.68255
G1 X104.758 Y98.296 E19.69844
G1 X105.823 Y97.665 E19.72932
G1 X106.384 Y97.37 E19.74513
G1 X107.415 Y96.894 E19.77346
G1 X108.281 Y96.57 E19.79652
G1 X108.36 Y96.547 E19.79858
G1 X109.046 Y96.389 E19.81614
G1 X110.093 Y96.3 E19.84235
G1 X138.737 Y96.3 E20.55687
G1 X139.44 Y96.34 E20.57444
G1 X139.978 Y96.425 E20.58803
G1 X140.661 Y96.597 E20.6056
G1 X141.319 Y96.845 E20.62314
G1 X141.728 Y97.044 E20.63448
G1 X142.656 Y97.539 E20.66072
G1 X142.932 Y97.695 E20.66863
G1 X143.714 Y98.165 E20.69139
G1 X144.011 Y98.356 E20.7002
G1 X145.069 Y99.077 E20.73213
G1 X145.328 Y99.263 E20.74009
G1 X145.977 Y99.756 E20.76042
G1 X146.262 Y99.986 E20.76955
G1 X147.095 Y100.7 E20.79692
G1 X147.31 Y100.893 E20.80413
G1 X148.182 Y101.714 E20.834
G1 X148.419 Y101.949 E20.84233
G1 X149.035 Y102.595 E20.8646
G1 X149.292 Y102.882 E20.87421
G1 X149.935 Y103.646 E20.89912
G1 X150.116 Y103.872 E20.90634
G1 X150.847 Y104.828 E20.93636
G1 X151.051 Y105.111 E20.94506
G1 X151.637 Y105.974 E20.97108
G1 X151.832 Y106.28 E20.98013
G1 X152.316 Y107.091 E21.00369
G1 X152.436 Y107.301 E21.00973
G1 X152.932 Y108.211 E21.03558
G1 X153.233 Y108.847 E21.05313
G1 X153.46 Y109.513 E21.07068
G1 X153.579 Y110.017 E21.0836
G1 X153.677 Y110.714 E21.10116
G1 X153.699 Y111.233 E21.11412
G1 X153.7 Y125.04 E21.45854
G1 X153.648 Y125.844 E21.47863
G1 X152.887 Y131.661 E21.62498
G1 X152.756 Y132.353 E21.64254
G1 X152.465 Y133.235 E21.66571
G1 X150.249 Y138.572 E21.80986
G1 X149.943 Y139.205 E21.8274
G1 X149.447 Y139.962 E21.84998
G1 X145.817 Y144.706 E21.99899
G1 X145.358 Y145.24 E22.01655
G1 X144.653 Y145.867 E22.04009
G1 X140.031 Y149.393 E22.1851
G1 X139.448 Y149.788 E22.20267
G1 X138.636 Y150.195 E22.22533
G1 X133.131 Y152.467 E22.37389
G1 X132.466 Y152.698 E22.39145
G1 X131.572 Y152.883 E22.41422
G1 X125.851 Y153.633 E22.55815
G1 X125.149 Y153.685 E22.57571
G1 X124.226 Y153.632 E22.59877
G1 X118.356 Y152.85 E22.7465
G1 X117.665 Y152.717 E22.76405
G1 X116.81 Y152.435 E22.78651
G1 X111.357 Y150.185 E22.93366
G1 X110.723 Y149.88 E22.95121
G1 X109.952 Y149.376 E22.97418
G1 X105.297 Y145.811 E23.12045
G1 X104.764 Y145.352 E23.13799
G1 X104.149 Y144.665 E23.16099
G1 X100.615 Y140.062 E23.30575
G1 X100.219 Y139.48 E23.32331
G1 X99.804 Y138.656 E23.34633
G1 X97.528 Y133.153 E23.49488
G1 X97.296 Y132.488 E23.51245
G1 X97.11 Y131.59 E23.53532
