;FLAVOR:Marlin
;TIME:267
;Filament used: 0.0346822m, 0m
;Layer height: 0.06
;MINX:116.8
;MINY:116.8
;MINZ:0.15
;MAXX:133.2
;MAXY:133.2
;MAXZ:3.99
;Generated with Cura_SteamEngine 4.11.0
T0
M82 ;absolute extrusion mode
;GeeeTech A20M start script
G28 ;home
G90 ;absolute positioning
G1 X0 Y0 Z15 E0 F300 ;go to wait position
M140 S60 ;set bed temp
M109 S200 ;set extruder temp and wait
G1 Z0.8 F200 ;set extruder height
G1 X220 Y0 E80 F1000 ;purge line
;end of start script
G92 E0
G92 E0
G1 F2100 E-0.8
;LAYER_COUNT:65
;LAYER:0
M107
G0 F3600 X118.232 Y118.435 Z0.15
;TYPE:SKIRT
G1 F2100 E0
G1 F1800 X118.703 Y117.995 E0.01608
G1 X119.226 Y117.617 E0.03218
G1 X119.79 Y117.306 E0.04824
G1 X120.389 Y117.068 E0.06432
G1 X121.013 Y116.905 E0.08041
G1 X121.863 Y116.811 E0.10174
G1 X122.33 Y116.8 E0.11339
G1 X127.293 Y116.8 E0.2372
G1 X128.065 Y116.811 E0.25646
G1 X128.708 Y116.86 E0.27254
G1 X129.34 Y116.988 E0.28863
G1 X129.951 Y117.194 E0.30471
G1 X130.532 Y117.473 E0.32079
G1 X131.074 Y117.822 E0.33687
G1 X131.568 Y118.236 E0.35295
G1 X132.008 Y118.708 E0.36904
G1 X132.386 Y119.23 E0.38512
G1 X132.696 Y119.795 E0.4012
G1 X132.934 Y120.394 E0.41728
G1 X133.096 Y121.018 E0.43336
G1 X133.189 Y121.864 E0.45459
G1 X133.2 Y122.33 E0.46622
G1 X133.2 Y127.328 E0.59089
G1 X133.191 Y128.055 E0.60903
G1 X133.143 Y128.698 E0.62511
G1 X133.016 Y129.33 E0.64119
G1 X132.811 Y129.942 E0.65729
G1 X132.533 Y130.523 E0.67336
G1 X132.185 Y131.066 E0.68945
G1 X131.772 Y131.561 E0.70553
G1 X131.301 Y132.001 E0.72161
G1 X130.779 Y132.38 E0.7377
G1 X130.215 Y132.691 E0.75376
G1 X129.616 Y132.93 E0.76985
G1 X128.993 Y133.094 E0.78592
G1 X128.137 Y133.189 E0.80741
G1 X127.67 Y133.2 E0.81906
G1 X122.64 Y133.2 E0.94453
G1 X121.942 Y133.191 E0.96195
G1 X121.299 Y133.142 E0.97803
G1 X120.667 Y133.015 E0.99411
G1 X120.056 Y132.81 E1.01019
G1 X119.475 Y132.532 E1.02626
G1 X118.932 Y132.183 E1.04236
G1 X118.437 Y131.77 E1.05844
G1 X117.997 Y131.299 E1.07452
G1 X117.618 Y130.777 E1.09061
G1 X117.307 Y130.213 E1.10668
G1 X117.069 Y129.614 E1.12275
G1 X116.906 Y128.99 E1.13884
G1 X116.811 Y128.131 E1.1604
G1 X116.8 Y127.658 E1.1722
G1 X116.8 Y122.604 E1.29827
G1 X116.809 Y121.939 E1.31486
G1 X116.858 Y121.296 E1.33095
G1 X116.986 Y120.664 E1.34704
G1 X117.191 Y120.053 E1.36311
G1 X117.47 Y119.472 E1.37919
G1 X117.819 Y118.929 E1.39529
G1 X118.232 Y118.435 E1.41135
G0 F3600 X118.625 Y118.605
G1 F1800 X119.091 Y118.198 E1.42679
G1 X119.606 Y117.854 E1.44224
G1 X120.161 Y117.579 E1.45769
G1 X120.747 Y117.378 E1.47314
G1 X121.354 Y117.254 E1.4886
G1 X121.874 Y117.211 E1.50161
G1 X122.33 Y117.2 E1.51299
G1 X127.362 Y117.2 E1.63851
G1 X128.06 Y117.21 E1.65593
G1 X128.677 Y117.259 E1.67137
G1 X129.283 Y117.387 E1.68682
G1 X129.868 Y117.592 E1.70228
G1 X130.421 Y117.871 E1.71773
G1 X130.934 Y118.218 E1.73318
G1 X131.398 Y118.628 E1.74863
G1 X131.805 Y119.095 E1.76408
G1 X132.148 Y119.61 E1.77951
G1 X132.423 Y120.166 E1.79499
G1 X132.623 Y120.752 E1.81043
G1 X132.747 Y121.359 E1.82589
G1 X132.789 Y121.875 E1.8388
G1 X132.8 Y122.33 E1.85016
G1 X132.8 Y127.323 E1.97471
G1 X132.791 Y128.05 E1.99284
G1 X132.743 Y128.668 E2.0083
G1 X132.616 Y129.274 E2.02375
G1 X132.413 Y129.859 E2.0392
G1 X132.135 Y130.413 E2.05466
G1 X131.789 Y130.926 E2.07009
G1 X131.379 Y131.391 E2.08556
G1 X130.913 Y131.799 E2.10101
G1 X130.399 Y132.143 E2.11644
G1 X129.844 Y132.419 E2.1319
G1 X129.258 Y132.621 E2.14736
G1 X128.652 Y132.745 E2.16279
G1 X128.126 Y132.789 E2.17596
G1 X127.67 Y132.8 E2.18734
G1 X122.645 Y132.8 E2.31269
G1 X121.947 Y132.791 E2.3301
G1 X121.33 Y132.743 E2.34554
G1 X120.723 Y132.616 E2.36101
G1 X120.139 Y132.412 E2.37644
G1 X119.585 Y132.134 E2.3919
G1 X119.072 Y131.787 E2.40735
G1 X118.607 Y131.378 E2.4228
G1 X118.2 Y130.911 E2.43825
G1 X117.855 Y130.397 E2.45369
G1 X117.58 Y129.842 E2.46914
G1 X117.379 Y129.256 E2.4846
G1 X117.254 Y128.649 E2.50006
G1 X117.211 Y128.121 E2.51327
G1 X117.2 Y127.658 E2.52482
G1 X117.2 Y122.609 E2.65077
G1 X117.209 Y121.944 E2.66736
G1 X117.258 Y121.327 E2.6828
G1 X117.385 Y120.72 E2.69827
G1 X117.59 Y120.136 E2.71371
G1 X117.868 Y119.582 E2.72917
G1 X118.215 Y119.069 E2.74462
G1 X118.625 Y118.605 E2.76007
G0 F3600 X119.016 Y118.784
G1 F1800 X119.477 Y118.411 E2.77486
G1 X119.984 Y118.103 E2.78966
G1 X120.527 Y117.866 E2.80444
G1 X121.098 Y117.704 E2.81924
G1 X121.886 Y117.611 E2.83903
G1 X122.33 Y117.6 E2.85011
G1 X127.356 Y117.6 E2.97549
G1 X128.054 Y117.61 E2.9929
G1 X128.645 Y117.659 E3.00769
G1 X129.224 Y117.786 E3.02248
G1 X129.781 Y117.99 E3.03728
G1 X130.305 Y118.268 E3.05207
G1 X130.787 Y118.613 E3.06686
G1 X131.219 Y119.02 E3.08167
G1 X131.591 Y119.481 E3.09644
G1 X131.899 Y119.988 E3.11124
G1 X132.135 Y120.532 E3.12603
G1 X132.296 Y121.102 E3.14081
G1 X132.389 Y121.886 E3.1605
G1 X132.4 Y122.33 E3.17158
G1 X132.4 Y127.318 E3.29601
G1 X132.391 Y128.045 E3.31414
G1 X132.343 Y128.637 E3.32896
G1 X132.217 Y129.216 E3.34374
G1 X132.014 Y129.773 E3.35853
G1 X131.738 Y130.298 E3.37333
G1 X131.394 Y130.781 E3.38812
G1 X130.988 Y131.213 E3.40291
G1 X130.527 Y131.586 E3.4177
G1 X130.021 Y131.895 E3.43249
G1 X129.478 Y132.132 E3.44727
G1 X128.907 Y132.295 E3.46208
G1 X128.114 Y132.389 E3.482
G1 X127.67 Y132.4 E3.49308
G1 X122.65 Y132.4 E3.6183
G1 X121.952 Y132.391 E3.63572
G1 X121.361 Y132.343 E3.65051
G1 X120.782 Y132.216 E3.66529
G1 X120.225 Y132.013 E3.68008
G1 X119.7 Y131.737 E3.69488
G1 X119.218 Y131.392 E3.70966
G1 X118.786 Y130.986 E3.72445
G1 X118.412 Y130.525 E3.73926
G1 X118.104 Y130.019 E3.75404
G1 X117.867 Y129.475 E3.76884
G1 X117.705 Y128.905 E3.78362
G1 X117.611 Y128.11 E3.80359
G1 X117.6 Y127.658 E3.81487
G1 X117.6 Y122.614 E3.94069
G1 X117.609 Y121.949 E3.95728
G1 X117.657 Y121.358 E3.97207
G1 X117.784 Y120.779 E3.98686
G1 X117.988 Y120.222 E4.00166
G1 X118.265 Y119.698 E4.01644
G1 X118.61 Y119.216 E4.03123
G1 X119.016 Y118.784 E4.04602
G0 F3600 X119.004 Y119.369
G1 F1800 X119.406 Y118.972 E4.06011
G1 X119.86 Y118.635 E4.07421
G1 X120.357 Y118.366 E4.08831
G1 X120.887 Y118.169 E4.10242
G1 X121.44 Y118.05 E4.11653
G1 X122.218 Y118.002 E4.13597
G1 X122.33 Y118 E4.13877
G1 X127.35 Y118 E4.26399
G1 X128.048 Y118.01 E4.2814
G1 X128.612 Y118.058 E4.29552
G1 X129.162 Y118.185 E4.3096
G1 X129.69 Y118.389 E4.32372
G1 X130.184 Y118.664 E4.33783
G1 X130.633 Y119.007 E4.35192
G1 X131.03 Y119.409 E4.36602
G1 X131.367 Y119.864 E4.38014
G1 X131.635 Y120.361 E4.39423
G1 X131.831 Y120.891 E4.40832
G1 X131.951 Y121.444 E4.42244
G1 X131.998 Y122.218 E4.44178
G1 X132 Y122.33 E4.44457
G1 X132 Y127.314 E4.5689
G1 X131.991 Y128.041 E4.58704
G1 X131.944 Y128.604 E4.60113
G1 X131.818 Y129.155 E4.61523
G1 X131.616 Y129.683 E4.62933
G1 X131.341 Y130.177 E4.64344
G1 X130.999 Y130.627 E4.65753
G1 X130.597 Y131.025 E4.67165
G1 X130.144 Y131.362 E4.68573
G1 X129.647 Y131.632 E4.69984
G1 X129.117 Y131.829 E4.71394
G1 X128.565 Y131.95 E4.72804
G1 X127.782 Y131.998 E4.74761
G1 X127.67 Y132 E4.7504
G1 X122.655 Y132 E4.8755
G1 X121.957 Y131.991 E4.89292
G1 X121.394 Y131.943 E4.90701
G1 X120.843 Y131.817 E4.92111
G1 X120.315 Y131.615 E4.93521
G1 X119.821 Y131.34 E4.94932
G1 X119.371 Y130.998 E4.96342
G1 X118.973 Y130.596 E4.97753
G1 X118.637 Y130.142 E4.99162
G1 X118.367 Y129.645 E5.00573
G1 X118.17 Y129.115 E5.01983
G1 X118.05 Y128.563 E5.03392
G1 X118.001 Y127.766 E5.05384
G1 X118 Y122.62 E5.18221
G1 X118.009 Y121.955 E5.1988
G1 X118.057 Y121.392 E5.21289
G1 X118.183 Y120.841 E5.22699
G1 X118.386 Y120.313 E5.2411
G1 X118.662 Y119.819 E5.25522
G1 X119.004 Y119.369 E5.26932
G0 F3600 X119.397 Y119.531
G1 F1800 X119.794 Y119.171 E5.28269
G1 X120.241 Y118.873 E5.29609
G1 X120.726 Y118.645 E5.30946
G1 X121.24 Y118.492 E5.32283
G1 X121.908 Y118.41 E5.33962
G1 X122.33 Y118.4 E5.35015
G1 X127.345 Y118.4 E5.47525
G1 X128.043 Y118.41 E5.49267
G1 X128.577 Y118.458 E5.50604
G1 X129.098 Y118.584 E5.51941
G1 X129.595 Y118.787 E5.5328
G1 X130.056 Y119.061 E5.54618
G1 X130.471 Y119.4 E5.55955
G1 X130.831 Y119.798 E5.57293
G1 X131.128 Y120.244 E5.5863
G1 X131.356 Y120.73 E5.59969
G1 X131.508 Y121.244 E5.61306
G1 X131.59 Y121.909 E5.62978
G1 X131.6 Y122.33 E5.64028
G1 X131.6 Y127.309 E5.76448
G1 X131.591 Y128.036 E5.78262
G1 X131.544 Y128.57 E5.79599
G1 X131.419 Y129.091 E5.80936
G1 X131.217 Y129.588 E5.82274
G1 X130.944 Y130.05 E5.83613
G1 X130.606 Y130.466 E5.8495
G1 X130.209 Y130.827 E5.86288
G1 X129.763 Y131.125 E5.87626
G1 X129.278 Y131.353 E5.88963
G1 X128.764 Y131.507 E5.90302
G1 X128.092 Y131.59 E5.91991
G1 X127.67 Y131.6 E5.93044
G1 X122.661 Y131.6 E6.05539
G1 X121.963 Y131.591 E6.0728
G1 X121.428 Y131.544 E6.0862
G1 X120.907 Y131.418 E6.09957
G1 X120.41 Y131.216 E6.11295
G1 X119.949 Y130.943 E6.12632
G1 X119.533 Y130.604 E6.1397
G1 X119.172 Y130.208 E6.15307
G1 X118.874 Y129.762 E6.16645
G1 X118.646 Y129.276 E6.17984
G1 X118.493 Y128.762 E6.19322
G1 X118.41 Y128.088 E6.21016
G1 X118.4 Y127.658 E6.22089
G1 X118.4 Y122.625 E6.34644
G1 X118.409 Y121.96 E6.36303
G1 X118.457 Y121.426 E6.3764
G1 X118.583 Y120.905 E6.38977
G1 X118.785 Y120.408 E6.40315
G1 X119.058 Y119.947 E6.41652
G1 X119.397 Y119.531 E6.42991
G0 F3600 X119.789 Y119.704
G1 F1800 X120.18 Y119.383 E6.44252
G1 X120.617 Y119.128 E6.45515
G1 X121.088 Y118.944 E6.46776
G1 X121.582 Y118.838 E6.48036
G1 X122.24 Y118.801 E6.4968
G1 X127.339 Y118.8 E6.624
G1 X128.037 Y118.81 E6.64141
G1 X128.54 Y118.857 E6.65401
G1 X129.03 Y118.983 E6.66663
G1 X129.494 Y119.185 E6.67926
G1 X129.92 Y119.457 E6.69187
G1 X130.298 Y119.792 E6.70447
G1 X130.618 Y120.183 E6.71707
G1 X130.873 Y120.62 E6.72969
G1 X131.056 Y121.091 E6.74229
G1 X131.163 Y121.585 E6.7549
G1 X131.199 Y122.24 E6.77127
G1 X131.2 Y127.304 E6.89759
G1 X131.191 Y128.031 E6.91573
G1 X131.145 Y128.534 E6.92833
G1 X131.02 Y129.024 E6.94094
G1 X130.819 Y129.488 E6.95355
G1 X130.548 Y129.915 E6.96617
G1 X130.213 Y130.294 E6.97879
G1 X129.823 Y130.615 E6.99139
G1 X129.387 Y130.871 E7.004
G1 X128.916 Y131.054 E7.0166
G1 X128.422 Y131.162 E7.02922
G1 X127.76 Y131.199 E7.04576
G1 X122.666 Y131.2 E7.17283
G1 X121.968 Y131.191 E7.19024
G1 X121.464 Y131.144 E7.20287
G1 X120.974 Y131.019 E7.21548
G1 X120.51 Y130.818 E7.2281
G1 X120.084 Y130.547 E7.24069
G1 X119.705 Y130.212 E7.25331
G1 X119.384 Y129.821 E7.26593
G1 X119.129 Y129.385 E7.27853
G1 X118.945 Y128.914 E7.29114
G1 X118.838 Y128.42 E7.30375
G1 X118.801 Y127.744 E7.32064
G1 X118.8 Y122.631 E7.44818
G1 X118.809 Y121.966 E7.46477
G1 X118.856 Y121.462 E7.4774
G1 X118.982 Y120.973 E7.49
G1 X119.183 Y120.509 E7.50261
G1 X119.454 Y120.082 E7.51523
G1 X119.789 Y119.704 E7.52783
G1 F2100 E6.72783
;MESH:gear_stepmotor.stl
G0 F3600 X121.588 Y121.589
G0 X122.214 Y122.214
G1 F2100 E7.52783
G0 F3600 X122.3 Y122.8
;TYPE:WALL-OUTER
G1 F1800 X122.3 Y127.2 E7.63758
G1 X127.7 Y127.2 E7.77229
G1 X127.7 Y122.8 E7.88205
G1 X122.3 Y122.8 E8.01675
G0 F3600 X122.3 Y123
G0 X122.2 Y123
G0 X122.272 Y127.228
G0 X127.73 Y127.73
G0 X127.8 Y127.8
G1 F1800 X122.2 Y127.8 E8.15644
G1 X122.2 Y127.2 E8.17141
G1 X122.2 Y122.8 E8.19885
G1 X122.2 Y122.2 E8.21382
G1 X127.8 Y122.2 E8.35351
G1 X127.8 Y122.8 E8.36848
G1 X127.8 Y127.2 E8.39592
G1 X127.8 Y127.8 E8.41088
G0 F3600 X127.6 Y127.8
G0 X127.499 Y127.499
;TYPE:SKIN
G1 F1800 X127.216 Y127.499 E8.4148
G1 X122.691 Y127.499 E8.47742
G1 X122.453 Y127.544 E8.48078
G0 F3600 X122.513 Y127.604
G0 X122.272 Y122.772
G0 X122.499 Y122.499
G1 F1800 X122.782 Y122.499 E8.48456
G1 X127.307 Y122.499 E8.54513
G1 X127.544 Y122.453 E8.54836
M104 S200
G0 F3600 X127.485 Y122.4
;MESH:NONMESH
G0 F600 X127.485 Y122.4 Z0.21
G0 F3600 X122.23 Y122.73
G0 X122.3 Y122.8
;TIME_ELAPSED:17.768559
;LAYER:1
M106 S255
;TYPE:WALL-OUTER
;MESH:gear_stepmotor.stl
G1 F800 X122.3 Y127.2 E8.59226
G1 X127.7 Y127.2 E8.64614
G1 X127.7 Y122.8 E8.69004
G1 X122.3 Y122.8 E8.74393
G0 F5400 X122.3 Y123
G0 X122.2 Y123
G0 X122.272 Y127.228
G0 X127.73 Y127.73
G0 X127.8 Y127.8
G1 F800 X122.2 Y127.8 E8.7998
G1 X122.2 Y127.2 E8.80579
G1 X122.2 Y122.8 E8.81677
G1 X122.2 Y122.2 E8.82275
G1 X127.8 Y122.2 E8.87863
G1 X127.8 Y122.8 E8.88462
G1 X127.8 Y127.2 E8.89559
G1 X127.8 Y127.8 E8.90158
G0 F5400 X127.6 Y127.8
G0 X127.561 Y127.561
;TYPE:SKIN
G1 F600 X127.341 Y127.499 E8.90281
G1 X122.533 Y127.499 E8.92868
G0 F5400 X122.428 Y127.604
G0 X122.272 Y122.772
G0 X122.724 Y122.499
G1 F600 X123.007 Y122.499 E8.93028
G1 X127.515 Y122.516 E8.95575
G0 F5400 X127.604 Y122.428
G0 X122.547 Y122.394
G1 F600 X122.395 Y122.546 E8.95683
G0 F5400 X122.6 Y122.4
;MESH:NONMESH
G0 F600 X122.6 Y122.4 Z0.27
G0 F5400 X122.3 Y122.8
;TIME_ELAPSED:22.694539
;LAYER:2
;TYPE:WALL-OUTER
;MESH:gear_stepmotor.stl
G1 F1200 X122.3 Y127.2 E9.00073
G1 X127.7 Y127.2 E9.05461
G1 X127.7 Y122.8 E9.09851
G1 X122.3 Y122.8 E9.15239
G0 F7200 X122.3 Y123
G0 X122.2 Y123
G0 X122.272 Y127.228
G0 X127.73 Y127.73
G0 X127.8 Y127.8
G1 F1200 X122.2 Y127.8 E9.20827
G1 X122.2 Y127.2 E9.21426
G1 X122.2 Y122.8 E9.22523
G1 X122.2 Y122.2 E9.23122
G1 X127.8 Y122.2 E9.2871
G1 X127.8 Y122.8 E9.29309
G1 X127.8 Y127.2 E9.30406
G1 X127.8 Y127.8 E9.31005
G0 F7200 X127.6 Y127.8
G0 X127.499 Y127.499
;TYPE:SKIN
G1 F600 X127.216 Y127.499 E9.31161
G1 X122.691 Y127.499 E9.33666
G1 X122.453 Y127.544 E9.338
G0 F7200 X122.513 Y127.604
G0 X122.272 Y122.772
G0 X122.499 Y122.499
G1 F600 X122.782 Y122.499 E9.33952
G1 X127.307 Y122.499 E9.36374
G1 X127.544 Y122.453 E9.36504
G0 F7200 X127.485 Y122.4
;MESH:NONMESH
G0 F600 X127.485 Y122.4 Z0.33
G0 F7200 X122.23 Y122.73
G0 X122.3 Y122.8
;TIME_ELAPSED:26.551820
;LAYER:3
;TYPE:WALL-OUTER
;MESH:gear_stepmotor.stl
G1 F1200 X122.3 Y127.2 E9.40894
G1 X127.7 Y127.2 E9.46282
G1 X127.7 Y122.8 E9.50673
G1 X122.3 Y122.8 E9.56061
G0 F7200 X122.3 Y123
G0 X122.2 Y123
G0 X122.272 Y127.228
G0 X127.73 Y127.73
G0 X127.8 Y127.8
G1 F1200 X122.2 Y127.8 E9.61648
G1 X122.2 Y127.2 E9.62247
G1 X122.2 Y122.8 E9.63345
G1 X122.2 Y122.2 E9.63943
G1 X127.8 Y122.2 E9.69531
G1 X127.8 Y122.8 E9.7013
G1 X127.8 Y127.2 E9.71227
G1 X127.8 Y127.8 E9.71826
G0 F7200 X127.6 Y127.8
G0 X127.561 Y127.561
;TYPE:SKIN
G1 F600 X127.341 Y127.499 E9.71949
G1 X122.533 Y127.499 E9.74536
G0 F7200 X122.428 Y127.604
G0 X122.272 Y122.772
G0 X122.724 Y122.499
G1 F600 X123.007 Y122.499 E9.74696
G1 X127.515 Y122.516 E9.77243
G0 F7200 X127.604 Y122.428
G0 X122.547 Y122.394
G1 F600 X122.395 Y122.546 E9.77351
G0 F7200 X122.6 Y122.4
;MESH:NONMESH
G0 F600 X122.6 Y122.4 Z0.39
G0 F7200 X122.3 Y122.8
;TIME_ELAPSED:30.470948
;LAYER:4
;TYPE:WALL-OUTER
;MESH:gear_stepmotor.stl
G1 F1200 X122.3 Y127.2 E9.81741
G1 X127.7 Y127.2 E9.87129
G1 X127.7 Y122.8 E9.91519
G1 X122.3 Y122.8 E9.96908
G0 F7200 X122.3 Y123
G0 X122.2 Y123
G0 X122.272 Y127.228
G0 X127.73 Y127.73
G0 X127.8 Y127.8
G1 F1200 X122.2 Y127.8 E10.02495
G1 X122.2 Y127.2 E10.03094
G1 X122.2 Y122.8 E10.04192
G1 X122.2 Y122.2 E10.0479
G1 X127.8 Y122.2 E10.10378
G1 X127.8 Y122.8 E10.10977
G1 X127.8 Y127.2 E10.12074
G1 X127.8 Y127.8 E10.12673
G0 F7200 X127.6 Y127.8
G0 X127.499 Y127.499
;TYPE:SKIN
G1 F600 X127.216 Y127.499 E10.1283
G1 X122.691 Y127.499 E10.15335
G1 X122.453 Y127.544 E10.15469
G0 F7200 X122.513 Y127.604
G0 X122.272 Y122.772
G0 X122.499 Y122.499
G1 F600 X122.782 Y122.499 E10.1562
G1 X127.307 Y122.499 E10.18043
G1 X127.544 Y122.453 E10.18172
G0 F7200 X127.485 Y122.4
;MESH:NONMESH
G0 F600 X127.485 Y122.4 Z0.45
G0 F7200 X122.23 Y122.73
G0 X122.3 Y122.8
;TIME_ELAPSED:34.328229
;LAYER:5
;TYPE:WALL-OUTER
;MESH:gear_stepmotor.stl
G1 F1200 X122.3 Y127.2 E10.22562
G1 X127.7 Y127.2 E10.2795
G1 X127.7 Y122.8 E10.32341
G1 X122.3 Y122.8 E10.37729
G0 F7200 X122.3 Y123
G0 X122.2 Y123
G0 X122.272 Y127.228
G0 X127.73 Y127.73
G0 X127.8 Y127.8
G1 F1200 X122.2 Y127.8 E10.43317
G1 X122.2 Y127.2 E10.43915
G1 X122.2 Y122.8 E10.45013
G1 X122.2 Y122.2 E10.45611
G1 X127.8 Y122.2 E10.51199
G1 X127.8 Y122.8 E10.51798
G1 X127.8 Y127.2 E10.52895
G1 X127.8 Y127.8 E10.53494
G0 F7200 X127.6 Y127.8
G0 X127.561 Y127.561
;TYPE:SKIN
G1 F600 X127.341 Y127.499 E10.53617
G1 X122.533 Y127.499 E10.56204
G0 F7200 X122.428 Y127.604
G0 X122.272 Y122.772
G0 X122.724 Y122.499
G1 F600 X123.007 Y122.499 E10.56364
G1 X127.515 Y122.516 E10.58911
G0 F7200 X127.604 Y122.428
G0 X122.547 Y122.394
G1 F600 X122.395 Y122.546 E10.59019
